X:1453
T:Nora O'Neill
M:C|
L:1/8
N:"collected by Mahony"
B:O'Neill's 1850 #1453
Z:"Transcribed by Bob Safranek, rjs@gsp.org"
K:C
|:\
g2{a}g^f gece | gage fdd \
[1 e | g2{a}g^f gece | fagf ecc2 :|\
[2 f | efge agfe | fagf ecc2 |]
|:\
GcEc Gcec | Gceg (fd)d2 |\
[1 GcEc Gcec | Bagf (ec)c2 :|\
[2 agfe fedc | Bagf (ec)c2 |]
